X:1
T:Village Festival, The
T:Village Festival, The
T:Carl Volti
C:Carl Volti
L:1/8
M:6/8
K:D
V:1 treble 
V:1
{ABc} d2 A f2 A | (d3 d2) z |{ABc} d2 A f2 A | (d3 d2) f | e2 a aba | f2 d dcd | Bcd fed | %7
 cde A2 z |{ABc} d2 A f2 A | (d3 d2) z |{ABc} d2 A f2 A | (d3 d2) f | e2 a aba | f2 d dcd | %14
 efg abc' | d'2 z d'2 z || e3 c2 B | (A3 A)(cd) | e2 e f2 e | (e2 d) d3 | d3 B2 A | (^G3 G)(Bc) | %22
 d2 d e2 d | (d2 c) c3 | e3 c2 B | (A3 A)(cd) | e2 e f2 e | (e2 d) d3 | (f3 f)dB | (e3 e)cA | %30
 (d3 d)(B^G) | Acf e2 e | (f3 f)dB | (e3 e)cA | Bcd ef^g | a2 z [ca]2 z || %36

